; generated by PrusaSlicer 2.8.0+win64 on 2024-10-12 at 15:49:00 UTC

; 

; external perimeters extrusion width = 0.60mm
; perimeters extrusion width = 0.60mm
; infill extrusion width = 0.60mm
; solid infill extrusion width = 0.60mm
; top infill extrusion width = 0.60mm
; first layer extrusion width = 0.60mm

M190 S75 ; set bed temperature and wait for it to be reached
M104 S190 ; set temperature
;TYPE:Custom
G28 ; home all axes
G1 Z5 F5000 ; lift nozzle
M109 S190 ; set temperature and wait for it to be reached
G21 ; set units to millimeters
G90 ; use absolute coordinates
M82 ; use absolute distances for extrusion
G92 E0
; Filament gcode
M900 K0.0
M107
;LAYER_CHANGE
;Z:0.25
;HEIGHT:0.25
G1 E-2 F600
G1 Z.25 F7800
G1 X81.99 Y69.327
G1 E0 F600
;TYPE:Skirt/Brim
;WIDTH:0.6
G1 F1800
G1 X83.3 Y67.846 E.14596
G1 X84.761 Y66.355 E.30006
G1 X87.449 Y63.977 E.565
G1 X89.107 Y62.708 E.71913
G1 X90.829 Y61.528 E.87323
G1 X92.611 Y60.44 E1.02736
G1 X94.348 Y59.497 E1.17327
G1 X97.614 Y58.008 E1.43825
G1 X99.466 Y57.316 E1.5842
G1 X101.443 Y56.689 E1.73731
G1 X104.964 Y55.844 E2.00462
G1 X106.985 Y55.509 E2.15585
G1 X109.066 Y55.274 E2.31045
G1 X111.144 Y55.148 E2.46413
G1 X113.134 Y55.13 E2.61104
G1 X115.219 Y55.218 E2.7651
G1 X117.287 Y55.414 E2.91845
G1 X120.83 Y56.005 E3.18362
G1 X122.767 Y56.47 E3.33068
G1 X124.769 Y57.06 E3.48476
G1 X128.131 Y58.317 E3.74973
G1 X130.03 Y59.185 E3.90387
G1 X131.783 Y60.098 E4.04978
G1 X134.844 Y61.973 E4.31477
G1 X136.453 Y63.121 E4.46068
G1 X138.088 Y64.419 E4.61479
G1 X139.654 Y65.8 E4.76893
G1 X141.145 Y67.261 E4.92303
G1 X143.523 Y69.949 E5.18797
G1 X144.792 Y71.607 E5.3421
G1 X145.972 Y73.329 E5.4962
G1 X147.005 Y75.015 E5.64217
G1 X148.003 Y76.848 E5.79624
G1 X149.492 Y80.114 E6.06122
G1 X150.22 Y82.071 E6.21536
G1 X150.815 Y83.956 E6.36128
G1 X151.653 Y87.446 E6.62624
G1 X151.994 Y89.506 E6.78038
G1 X152.218 Y91.469 E6.92623
G1 X152.348 Y93.553 E7.08037
G1 X152.37 Y95.64 E7.23445
G1 X152.15 Y99.223 E7.49945
G1 X151.892 Y101.183 E7.64539
G1 X151.515 Y103.236 E7.79948
G1 X150.616 Y106.711 E8.06446
G1 X149.951 Y108.69 E8.21858
G1 X149.183 Y110.631 E8.37268
G1 X148.363 Y112.43 E8.51863
G1 X147.402 Y114.283 E8.67272
G1 X146.345 Y116.083 E8.82682
G1 X145.195 Y117.826 E8.98098
G1 X143.01 Y120.673 E9.24592
G1 X141.625 Y122.235 E9.40003
G1 X140.239 Y123.645 E9.54599
G1 X137.551 Y126.023 E9.81093
G1 X135.983 Y127.227 E9.95687
G1 X134.264 Y128.411 E10.11096
G1 X131.171 Y130.233 E10.37596
G1 X129.301 Y131.162 E10.5301
G1 X127.386 Y131.992 E10.68418
G1 X125.534 Y132.684 E10.83013
G1 X123.544 Y133.315 E10.98424
G1 X120.054 Y134.153 E11.2492
G1 X117.994 Y134.494 E11.40334
G1 X116.031 Y134.718 E11.54919
G1 X113.947 Y134.848 E11.70333
G1 X111.86 Y134.87 E11.85741
G1 X108.277 Y134.65 E12.12241
G1 X106.317 Y134.392 E12.26835
G1 X104.264 Y134.015 E12.42244
G1 X100.789 Y133.116 E12.68742
G1 X98.81 Y132.451 E12.84154
G1 X96.869 Y131.683 E12.99564
G1 X94.97 Y130.815 E13.14978
G1 X93.12 Y129.848 E13.30388
G1 X91.417 Y128.845 E13.44978
G1 X89.674 Y127.695 E13.60394
G1 X86.827 Y125.51 E13.86888
G1 X85.346 Y124.2 E14.01484
G1 X83.855 Y122.739 E14.16894
G1 X81.477 Y120.051 E14.43388
G1 X80.273 Y118.483 E14.57982
G1 X79.089 Y116.764 E14.73391
G1 X77.267 Y113.671 E14.99891
G1 X76.338 Y111.801 E15.15305
G1 X75.508 Y109.886 E15.30713
G1 X74.78 Y107.929 E15.46127
G1 X74.185 Y106.044 E15.60719
G1 X73.347 Y102.554 E15.87215
G1 X73.021 Y100.604 E16.0181
G1 X72.782 Y98.531 E16.17215
G1 X72.652 Y96.447 E16.32629
G1 X72.63 Y94.374 E16.47933
G1 X72.85 Y90.777 E16.74537
G1 X73.108 Y88.817 E16.89131
G1 X73.485 Y86.764 E17.0454
G1 X73.97 Y84.733 E17.19955
G1 X74.56 Y82.731 E17.35363
G1 X75.817 Y79.369 E17.6186
G1 X76.685 Y77.47 E17.77274
G1 X77.598 Y75.717 E17.91865
G1 X78.655 Y73.917 E18.07275
G1 X79.805 Y72.174 E18.22691
G1 X81.953 Y69.374 E18.48743
G1 X81.953 Y69.374 F7800
G1 X82.386 Y69.706
G1 F1800
G1 X82.405 Y69.681 E18.48975
G1 X83.702 Y68.215 E18.63425
G1 X85.144 Y66.745 E18.78626
G1 X87.789 Y64.404 E19.04701
G1 X89.342 Y63.213 E19.19149
G1 X91.038 Y62.044 E19.34355
G1 X94.081 Y60.251 E19.60429
G1 X95.925 Y59.335 E19.75629
G1 X97.814 Y58.516 E19.90828
G1 X99.648 Y57.831 E20.05281
G1 X101.598 Y57.213 E20.20382
G1 X105.062 Y56.382 E20.4668
G1 X107.057 Y56.05 E20.6161
G1 X109.109 Y55.818 E20.76855
G1 X111.159 Y55.695 E20.92016
G1 X113.129 Y55.677 E21.0656
G1 X115.185 Y55.763 E21.21751
G1 X117.226 Y55.957 E21.36886
G1 X120.712 Y56.539 E21.62977
G1 X122.63 Y56.999 E21.77538
G1 X124.605 Y57.581 E21.92738
G1 X127.913 Y58.818 E22.1881
G1 X129.695 Y59.63 E22.33267
G1 X131.522 Y60.578 E22.48462
G1 X133.298 Y61.621 E22.63667
G1 X135.016 Y62.755 E22.78863
G1 X137.819 Y64.905 E23.04942
G1 X139.285 Y66.202 E23.19392
G1 X140.755 Y67.644 E23.34593
G1 X143.096 Y70.289 E23.60668
G1 X144.347 Y71.924 E23.75866
G1 X145.456 Y73.538 E23.90323
G1 X147.249 Y76.581 E24.16397
G1 X148.165 Y78.425 E24.31597
G1 X148.984 Y80.314 E24.46796
G1 X149.669 Y82.148 E24.61249
G1 X150.291 Y84.111 E24.7645
G1 X151.115 Y87.546 E25.02527
G1 X151.453 Y89.577 E25.17727
G1 X151.674 Y91.522 E25.32178
G1 X151.803 Y93.577 E25.47378
G1 X151.823 Y95.636 E25.62579
G1 X151.608 Y99.161 E25.8865
G1 X151.336 Y101.202 E26.0385
G1 X150.979 Y103.127 E26.18303
G1 X150.501 Y105.13 E26.33505
G1 X149.919 Y107.105 E26.48705
G1 X148.682 Y110.414 E26.74784
G1 X147.826 Y112.286 E26.8998
G1 X146.873 Y114.111 E27.05179
G1 X145.879 Y115.798 E27.19634
G1 X144.745 Y117.516 E27.3483
G1 X142.595 Y120.319 E27.60909
G1 X141.298 Y121.785 E27.75359
G1 X139.856 Y123.255 E27.9056
G1 X137.211 Y125.596 E28.16635
G1 X135.658 Y126.787 E28.31083
G1 X133.962 Y127.956 E28.46289
G1 X130.919 Y129.749 E28.72363
G1 X129.075 Y130.665 E28.87563
G1 X127.186 Y131.484 E29.02762
G1 X125.352 Y132.169 E29.17215
G1 X123.389 Y132.791 E29.32416
G1 X119.954 Y133.615 E29.58493
G1 X117.923 Y133.953 E29.73693
G1 X115.877 Y134.183 E29.88892
G1 X113.923 Y134.303 E30.03344
G1 X111.864 Y134.323 E30.18545
G1 X108.339 Y134.108 E30.44616
G1 X106.398 Y133.852 E30.59069
G1 X104.373 Y133.479 E30.7427
G1 X100.953 Y132.595 E31.00347
G1 X99.001 Y131.939 E31.15549
G1 X97.086 Y131.182 E31.3075
G1 X95.305 Y130.37 E31.452
G1 X93.478 Y129.422 E31.60395
G1 X91.702 Y128.379 E31.756
G1 X89.984 Y127.245 E31.90796
G1 X87.181 Y125.095 E32.16875
G1 X85.715 Y123.798 E32.31325
G1 X84.245 Y122.356 E32.46526
G1 X81.904 Y119.711 E32.72601
G1 X80.653 Y118.076 E32.87799
G1 X79.544 Y116.462 E33.02256
G1 X77.751 Y113.419 E33.2833
G1 X76.835 Y111.575 E33.4353
G1 X76.016 Y109.686 E33.58729
G1 X75.298 Y107.756 E33.73931
G1 X74.709 Y105.889 E33.88383
G1 X73.885 Y102.454 E34.1446
G1 X73.562 Y100.524 E34.28906
G1 X73.326 Y98.478 E34.4411
G1 X73.197 Y96.423 E34.5931
G1 X73.177 Y94.379 E34.744
G1 X73.392 Y90.839 E35.00581
G1 X73.664 Y88.798 E35.15781
G1 X74.021 Y86.873 E35.30234
G1 X74.499 Y84.87 E35.45436
G1 X75.081 Y82.895 E35.60636
G1 X76.318 Y79.586 E35.86715
G1 X77.13 Y77.805 E36.01165
G1 X78.078 Y75.978 E36.1636
G1 X79.121 Y74.202 E36.31565
G1 X80.255 Y72.484 E36.46761
G1 X82.35 Y69.754 E36.72165
G1 X82.35 Y69.754 F7800
G1 X82.783 Y70.086
G1 F1800
G1 X82.821 Y70.036 E36.72629
G1 X84.105 Y68.584 E36.86938
G1 X85.527 Y67.135 E37.01925
G1 X88.129 Y64.832 E37.27577
G1 X89.667 Y63.652 E37.41888
G1 X91.339 Y62.5 E37.56877
G1 X94.334 Y60.736 E37.82537
G1 X96.152 Y59.832 E37.97526
G1 X98.015 Y59.025 E38.12514
G1 X99.83 Y58.346 E38.2682
G1 X101.754 Y57.737 E38.41718
G1 X105.157 Y56.92 E38.67554
G1 X107.101 Y56.595 E38.82104
G1 X109.152 Y56.363 E38.97342
G1 X111.173 Y56.241 E39.12289
G1 X113.124 Y56.223 E39.26692
G1 X115.152 Y56.309 E39.41677
G1 X117.164 Y56.5 E39.56597
G1 X120.594 Y57.072 E39.82268
G1 X122.493 Y57.528 E39.96685
G1 X124.441 Y58.102 E40.11677
G1 X127.696 Y59.319 E40.37331
G1 X129.46 Y60.123 E40.51642
G1 X131.262 Y61.058 E40.66629
G1 X133.012 Y62.087 E40.81616
G1 X134.707 Y63.205 E40.96606
G1 X137.464 Y65.321 E41.22262
G1 X138.916 Y66.605 E41.36571
G1 X140.365 Y68.027 E41.51558
G1 X142.668 Y70.629 E41.7721
G1 X143.902 Y72.242 E41.92203
G1 X145 Y73.839 E42.0651
G1 X146.764 Y76.834 E42.3217
G1 X147.668 Y78.652 E42.47159
G1 X148.475 Y80.515 E42.62147
G1 X149.184 Y82.417 E42.77132
G1 X149.767 Y84.266 E42.91444
G1 X150.578 Y87.645 E43.17097
G1 X150.911 Y89.648 E43.32087
G1 X151.138 Y91.666 E43.47078
G1 X151.257 Y93.601 E43.6139
G1 X151.277 Y95.631 E43.76377
G1 X151.065 Y99.1 E44.02034
G1 X150.812 Y101.021 E44.16338
G1 X150.444 Y103.018 E44.31329
G1 X149.972 Y104.993 E44.4632
G1 X149.398 Y106.941 E44.61312
G1 X148.181 Y110.196 E44.86966
G1 X147.377 Y111.959 E45.0127
G1 X146.442 Y113.762 E45.16263
G1 X144.626 Y116.725 E45.41918
G1 X143.5 Y118.303 E45.56229
G1 X142.238 Y119.893 E45.71215
G1 X140.895 Y121.416 E45.86205
G1 X139.473 Y122.865 E46.01192
G1 X136.871 Y125.168 E46.26844
G1 X135.333 Y126.348 E46.41155
G1 X133.661 Y127.5 E46.56144
G1 X130.666 Y129.264 E46.81804
G1 X128.848 Y130.168 E46.96793
G1 X126.985 Y130.975 E47.11781
G1 X125.083 Y131.684 E47.26766
G1 X123.234 Y132.267 E47.41078
G1 X119.855 Y133.078 E47.66731
G1 X117.852 Y133.411 E47.81721
G1 X115.834 Y133.638 E47.96712
G1 X113.899 Y133.757 E48.11024
G1 X111.869 Y133.777 E48.26011
G1 X108.4 Y133.565 E48.51668
G1 X106.479 Y133.312 E48.65972
G1 X104.482 Y132.944 E48.80963
G1 X101.117 Y132.074 E49.06621
G1 X99.193 Y131.427 E49.21606
G1 X97.304 Y130.681 E49.36599
G1 X95.541 Y129.877 E49.50903
G1 X93.738 Y128.942 E49.65896
G1 X91.988 Y127.913 E49.80883
G1 X90.293 Y126.795 E49.95873
G1 X87.536 Y124.679 E50.21529
G1 X86.084 Y123.395 E50.35838
G1 X84.635 Y121.973 E50.50825
G1 X82.332 Y119.371 E50.76477
G1 X81.098 Y117.758 E50.9147
G1 X80 Y116.161 E51.05777
G1 X78.236 Y113.166 E51.31437
G1 X77.332 Y111.348 E51.46426
G1 X76.525 Y109.485 E51.61414
G1 X75.846 Y107.67 E51.7572
G1 X75.233 Y105.734 E51.90711
G1 X74.422 Y102.355 E52.16364
G1 X74.102 Y100.443 E52.30675
G1 X73.87 Y98.426 E52.45663
G1 X73.743 Y96.399 E52.60656
G1 X73.723 Y94.384 E52.75532
G1 X73.935 Y90.9 E53.01299
G1 X74.188 Y88.979 E53.15603
G1 X74.556 Y86.982 E53.30594
G1 X75.028 Y85.007 E53.45585
G1 X75.602 Y83.059 E53.60577
G1 X76.819 Y79.804 E53.86231
G1 X77.623 Y78.04 E54.00542
G1 X78.558 Y76.238 E54.15529
G1 X79.587 Y74.488 E54.30516
G1 X80.705 Y72.793 E54.45506
G1 X82.746 Y70.134 E54.70251
G1 E52.70251 F600
G92 E0
G1 X82.746 Y70.134 F7800
G92 E0
G1 X112.493 Y125.827
G1 E2 F600
;TYPE:Perimeter
;WIDTH:0.599999
G1 F1800
G1 X111.445 Y125.819 E2.07737
G1 X109.827 Y125.721 E2.19703
G1 X108.23 Y125.54 E2.31568
G1 X107.152 Y125.37 E2.39624
G1 X105.584 Y125.052 E2.51435
G1 X104.498 Y124.781 E2.59698
G1 X102.991 Y124.334 E2.71302
G1 X101.469 Y123.797 E2.83217
G1 X99.97 Y123.177 E2.95192
G1 X98.481 Y122.466 E3.07373
G1 X97.069 Y121.699 E3.19235
G1 X96.154 Y121.148 E3.2712
G1 X94.83 Y120.273 E3.38836
G1 X93.532 Y119.313 E3.50754
G1 X92.285 Y118.287 E3.62675
G1 X91.094 Y117.197 E3.74594
G1 X89.962 Y116.047 E3.86506
G1 X88.891 Y114.838 E3.98429
G1 X88.179 Y113.958 E4.06785
G1 X87.227 Y112.67 E4.18609
G1 X86.36 Y111.359 E4.30212
G1 X85.54 Y109.969 E4.42126
G1 X84.793 Y108.537 E4.54049
G1 X84.315 Y107.511 E4.62405
G1 X83.719 Y106.071 E4.7391
G1 X83.179 Y104.55 E4.85825
G1 X82.719 Y103.002 E4.97747
G1 X82.341 Y101.432 E5.09668
G1 X82.046 Y99.845 E5.21584
G1 X81.834 Y98.245 E5.33499
G1 X81.738 Y97.152 E5.41599
G1 X81.668 Y95.56 E5.53363
G1 X81.681 Y93.945 E5.65286
G1 X81.738 Y92.85 E5.7338
G1 X81.89 Y91.263 E5.85149
G1 X82.128 Y89.666 E5.97069
G1 X82.448 Y88.084 E6.08984
G1 X82.852 Y86.521 E6.20902
G1 X83.336 Y84.981 E6.32819
G1 X83.711 Y83.95 E6.40918
G1 X84.32 Y82.477 E6.52685
G1 X85.014 Y81.019 E6.64605
G1 X85.791 Y79.588 E6.76626
G1 X86.626 Y78.223 E6.88439
G1 X87.54 Y76.892 E7.00358
G1 X88.522 Y75.61 E7.12279
G1 X89.569 Y74.382 E7.24192
G1 X90.313 Y73.584 E7.32246
G1 X91.453 Y72.462 E7.44054
G1 X92.662 Y71.391 E7.55977
G1 X93.925 Y70.385 E7.67897
G1 X94.841 Y69.72 E7.76253
G1 X96.141 Y68.86 E7.8776
G1 X97.531 Y68.04 E7.99674
G1 X98.963 Y67.293 E8.11597
G1 X100.431 Y66.623 E8.23509
G1 X101.933 Y66.03 E8.3543
G1 X102.97 Y65.672 E8.43529
G1 X104.498 Y65.219 E8.55294
G1 X106.068 Y64.841 E8.67215
G1 X107.655 Y64.546 E8.79131
G1 X109.255 Y64.334 E8.91046
G1 X110.872 Y64.206 E9.0302
G1 X111.968 Y64.167 E9.11116
G1 X113.555 Y64.181 E9.22832
G1 X115.166 Y64.278 E9.34746
G1 X116.77 Y64.46 E9.46663
G1 X118.363 Y64.725 E9.58584
G1 X119.946 Y65.075 E9.70552
G1 X121.495 Y65.504 E9.82418
G1 X123.027 Y66.015 E9.9434
G1 X124.045 Y66.406 E10.0239
G1 X125.552 Y67.061 E10.1452
G1 X126.958 Y67.762 E10.26118
G1 X128.364 Y68.556 E10.38038
G1 X129.289 Y69.134 E10.4609
G1 X130.608 Y70.04 E10.57903
G1 X131.89 Y71.022 E10.69824
G1 X133.118 Y72.069 E10.81737
G1 X133.916 Y72.813 E10.89791
G1 X135.038 Y73.953 E11.01599
G1 X135.787 Y74.785 E11.09863
G1 X136.813 Y76.032 E11.21784
G1 X137.773 Y77.33 E11.33702
G1 X138.64 Y78.641 E11.45305
G1 X139.46 Y80.031 E11.57219
G1 X140.207 Y81.463 E11.69142
G1 X140.685 Y82.489 E11.77498
G1 X141.297 Y83.969 E11.89321
G1 X141.821 Y85.45 E12.00918
G1 X142.281 Y86.998 E12.1284
G1 X142.659 Y88.568 E12.24761
G1 X142.954 Y90.155 E12.36677
G1 X143.166 Y91.755 E12.48592
G1 X143.261 Y92.835 E12.56596
G1 X143.332 Y94.44 E12.68456
G1 X143.319 Y96.055 E12.80379
G1 X143.221 Y97.673 E12.92345
G1 X143.04 Y99.27 E13.0421
G1 X142.87 Y100.348 E13.12266
G1 X142.552 Y101.916 E13.24077
G1 X142.277 Y103.015 E13.3244
G1 X141.834 Y104.509 E13.43944
G1 X141.297 Y106.031 E13.55859
G1 X140.68 Y107.523 E13.67778
G1 X139.986 Y108.981 E13.79698
G1 X139.216 Y110.4 E13.91616
G1 X138.37 Y111.783 E14.03584
G1 X137.46 Y113.108 E14.1545
G1 X136.804 Y113.98 E14.23505
G1 X135.787 Y115.215 E14.35315
G1 X134.697 Y116.406 E14.47234
G1 X133.547 Y117.538 E14.59146
G1 X132.338 Y118.609 E14.71069
G1 X131.075 Y119.615 E14.82989
G1 X130.199 Y120.252 E14.90985
G1 X128.859 Y121.14 E15.02852
G1 X127.469 Y121.96 E15.14766
G1 X126.005 Y122.723 E15.26953
G1 X125.037 Y123.174 E15.34837
G1 X123.571 Y123.781 E15.4655
G1 X122.043 Y124.324 E15.58521
G1 X120.502 Y124.781 E15.70387
G1 X118.932 Y125.159 E15.82308
G1 X117.345 Y125.454 E15.94224
G1 X115.745 Y125.666 E16.06139
G1 X114.658 Y125.762 E16.14195
G1 X113.06 Y125.832 E16.26003
G1 X112.553 Y125.828 E16.29746
G1 X112.553 Y125.828 F7800
G1 X112.497 Y125.282
;TYPE:External perimeter
G1 F1800
G1 X111.45 Y125.273 E16.37475
G1 X109.865 Y125.176 E16.49198
G1 X108.292 Y124.997 E16.60885
G1 X107.242 Y124.831 E16.68733
G1 X105.693 Y124.516 E16.80402
G1 X104.653 Y124.257 E16.88314
G1 X103.146 Y123.811 E16.99916
G1 X101.651 Y123.282 E17.11623
G1 X100.184 Y122.674 E17.23346
G1 X98.742 Y121.986 E17.35141
G1 X97.35 Y121.23 E17.46835
G1 X96.439 Y120.682 E17.54683
G1 X95.132 Y119.817 E17.66253
G1 X93.857 Y118.874 E17.7796
G1 X92.633 Y117.866 E17.89666
G1 X91.463 Y116.794 E18.0138
G1 X90.352 Y115.664 E18.13078
G1 X89.3 Y114.476 E18.24792
G1 X88.618 Y113.633 E18.32797
G1 X87.683 Y112.368 E18.4441
G1 X86.816 Y111.058 E18.56007
G1 X86.01 Y109.692 E18.67716
G1 X85.278 Y108.285 E18.79424
G1 X84.82 Y107.302 E18.8743
G1 X84.224 Y105.862 E18.98935
G1 X83.694 Y104.367 E19.10644
G1 X83.243 Y102.847 E19.22349
G1 X82.872 Y101.305 E19.34057
G1 X82.583 Y99.746 E19.45762
G1 X82.376 Y98.173 E19.57474
G1 X82.282 Y97.105 E19.65389
G1 X82.214 Y95.536 E19.76983
G1 X82.227 Y93.95 E19.88692
G1 X82.284 Y92.879 E19.9661
G1 X82.434 Y91.316 E20.08201
G1 X82.668 Y89.747 E20.19912
G1 X82.984 Y88.193 E20.31619
G1 X83.381 Y86.658 E20.43324
G1 X83.857 Y85.145 E20.55033
G1 X84.224 Y84.137 E20.62952
G1 X84.825 Y82.686 E20.74546
G1 X85.507 Y81.255 E20.86248
G1 X86.266 Y79.857 E20.97991
G1 X87.092 Y78.508 E21.09668
G1 X87.99 Y77.201 E21.21374
G1 X88.957 Y75.941 E21.33099
G1 X89.985 Y74.737 E21.44786
G1 X90.709 Y73.96 E21.52626
G1 X91.836 Y72.852 E21.64293
G1 X93.024 Y71.8 E21.76007
G1 X94.265 Y70.813 E21.87713
G1 X95.143 Y70.176 E21.95721
G1 X96.442 Y69.316 E22.07222
G1 X97.808 Y68.51 E22.18931
G1 X99.215 Y67.778 E22.30639
G1 X100.658 Y67.12 E22.42347
G1 X102.133 Y66.538 E22.54053
G1 X103.148 Y66.189 E22.61977
G1 X104.653 Y65.743 E22.73565
G1 X106.195 Y65.372 E22.85273
G1 X107.754 Y65.083 E22.96978
G1 X109.327 Y64.876 E23.0869
G1 X110.91 Y64.751 E23.20412
